src/lib/packages/icons/src/assets/line/arrow-share.svg

<svg width="24" height="24" viewBox="0 0 24 24" fill="none" xmlns="http://www.w3.org/2000/svg">
<path d="M21.1819 10.0659L15.2539 3.79585C14.7599 3.27485 14.008 3.10993 13.345 3.37593C12.679 3.64093 12.249 4.27492 12.25 4.99092V7.75801C5.793 7.95101 2.25 10.6799 2.25 15.4909C2.25 17.1429 2.66988 18.7889 3.43188 20.1259C3.65788 20.5229 4.0599 20.7509 4.4939 20.7509C4.6019 20.7509 4.71397 20.737 4.82397 20.707C5.36597 20.56 5.72597 20.083 5.71997 19.519C5.70397 18.304 5.82905 17.415 6.49805 16.737C7.40205 15.821 9.33598 15.322 12.251 15.25V17.996C12.25 18.712 12.6799 19.347 13.3459 19.612C14.0089 19.877 14.7609 19.7119 15.2549 19.1909L21.1831 12.9209C21.9381 12.1209 21.9379 10.8669 21.1819 10.0659ZM20.092 11.8911L14.1641 18.1599C14.0701 18.2589 13.9669 18.245 13.8999 18.218C13.8319 18.191 13.75 18.13 13.75 17.996V14.4909C13.75 14.0769 13.414 13.7409 13 13.7409C9.143 13.7409 6.73693 14.3581 5.42993 15.6831C4.65193 16.4711 4.35999 17.4059 4.26099 18.3649C3.92799 17.4749 3.75 16.4859 3.75 15.4899C3.75 10.3289 8.78 9.24605 13 9.24605C13.414 9.24605 13.75 8.91005 13.75 8.49605V4.98994C13.75 4.85694 13.8309 4.796 13.8999 4.769C13.9269 4.758 13.9611 4.74898 13.9971 4.74898C14.0501 4.74898 14.1081 4.76786 14.1641 4.82686L20.092 11.0969C20.303 11.3189 20.303 11.6681 20.092 11.8911Z" fill="currentColor"/>
</svg>

<svg xmlns="http://www.w3.org/2000/svg" width="24" height="24" fill="none"><path fill="currentColor" d="m21.182 10.066-5.928-6.27a1.733 1.733 0 0 0-1.909-.42A1.727 1.727 0 0 0 12.25 4.99v2.767c-6.457.193-10 2.922-10 7.733 0 1.652.42 3.298 1.182 4.635a1.215 1.215 0 0 0 1.392.581 1.2 1.2 0 0 0 .896-1.188c-.016-1.215.109-2.104.778-2.782.904-.916 2.838-1.415 5.753-1.487v2.746a1.728 1.728 0 0 0 1.095 1.616c.663.265 1.415.1 1.909-.421l5.928-6.27c.755-.8.755-2.054-.001-2.855Zm-1.09 1.825-5.928 6.269a.226.226 0 0 1-.264.058.224.224 0 0 1-.15-.222v-3.505a.75.75 0 0 0-.75-.75c-3.857 0-6.263.617-7.57 1.942-.778.788-1.07 1.723-1.169 2.682a8.269 8.269 0 0 1-.511-2.875c0-5.161 5.03-6.244 9.25-6.244a.75.75 0 0 0 .75-.75V4.99c0-.133.08-.194.15-.221a.224.224 0 0 1 .264.058l5.928 6.27a.577.577 0 0 1 0 .794Z"/></svg>
